synths/sYFI.svg

<svg width="480" height="480" viewBox="0 0 480 480" fill="none" xmlns="http://www.w3.org/2000/svg"><mask id="mask0-748618" maskUnits="userSpaceOnUse" x="0" y="0" width="480" height="480"><circle cx="240" cy="240" r="240" fill="url(#paint0_linear-496867)"/></mask><g mask="url(#mask0-748618)"><circle cx="240" cy="240" r="240" fill="#31D8A4"/><circle cx="240" cy="240" r="208" fill="#fff"/></g><circle cx="240" cy="240" r="184" fill="#0E052F"/><path fill-rule="evenodd" clip-rule="evenodd" d="M240 56c101.605 0 184 82.395 184 184s-82.395 184-184 184S56 341.605 56 240 138.395 56 240 56z" fill="#006AE3"/><path d="M232.419 317.574V164.486h16.67v153.088h-16.67z" fill="#fff"/><path d="M317.28 215.491l-51.483 13.653-11.482-53.434 15.309-3.459 6.035 25.318s13.911-22.816-4.636-46.441c-10.93-12.144-16.119-12.659-28.373-14.573-10.783-1.546-35.843 2.098-43.314 31.354-3.165 18.841.405 32.788 24.693 51.041l-1.362 20.314s-27.121-19.099-34.113-32.495c-5.41-10.598-14.683-31.537 2.061-60.683 9.016-14.573 26.79-28.557 58.107-27.085 15.75.663 54.206 19.909 48.245 64.879-1.031 8.427-5.41 19.651-5.41 19.651l21.123-4.71 4.6 16.67zm-29.403 119.784c-9.421 14.315-27.564 27.821-58.807 25.539-15.75-1.067-53.654-21.344-46.515-66.129 1.251-8.391 5.925-19.468 5.925-19.468l-21.234 4.122-4.158-16.744 51.851-12.291 10.083 53.728-15.419 3.054-5.373-25.502s-14.499 22.411 3.386 46.552c10.598 12.438 15.75 13.064 28.005 15.309 10.708 1.84 35.88-1.178 44.123-30.213 3.643-18.731.441-32.789-23.331-51.704l1.913-20.277s26.607 19.798 33.231 33.378c5.078 10.782 13.8 31.979-3.68 60.646z" fill="#fff"/><defs><linearGradient id="paint0_linear-496867" x1="240" y1="0" x2="240" y2="701.818" gradientUnits="userSpaceOnUse"><stop stop-color="#08021E"/><stop offset="1" stop-color="#1F0777"/></linearGradient></defs></svg>

<svg width="480" height="480" viewBox="0 0 480 480" fill="none" xmlns="http://www.w3.org/2000/svg">
<mask id="mask0-748618" mask-type="alpha" maskUnits="userSpaceOnUse" x="0" y="0" width="480" height="480">
<circle cx="240" cy="240" r="240" fill="url(#paint0_linear-496867)"/>
</mask>
<g mask="url(#mask0-748618)">
<circle cx="240" cy="240" r="240" fill="#31D8A4"/>
<circle cx="240" cy="240" r="208" fill="white"/>
</g>
<circle cx="240" cy="240" r="184" fill="#0E052F"/>
<path fill-rule="evenodd" clip-rule="evenodd" d="M240 56C341.605 56 424 138.395 424 240C424 341.605 341.605 424 240 424C138.395 424 56 341.605 56 240C56 138.395 138.395 56 240 56Z" fill="#006AE3"/>
<path d="M232.419 317.574V164.486H249.089V317.574H232.419Z" fill="white"/>
<path d="M317.28 215.491L265.797 229.144L254.315 175.71L269.624 172.251L275.659 197.569C275.659 197.569 289.57 174.753 271.023 151.128C260.093 138.984 254.904 138.469 242.65 136.555C231.867 135.009 206.807 138.653 199.336 167.909C196.171 186.75 199.741 200.697 224.029 218.95L222.667 239.264C222.667 239.264 195.546 220.165 188.554 206.769C183.144 196.171 173.871 175.232 190.615 146.086C199.631 131.513 217.405 117.529 248.722 119.001C264.472 119.664 302.928 138.91 296.967 183.88C295.936 192.307 291.557 203.531 291.557 203.531L312.68 198.821L317.28 215.491Z" fill="white"/>
<path d="M287.877 335.275C278.456 349.59 260.313 363.096 229.07 360.814C213.32 359.747 175.416 339.47 182.555 294.685C183.806 286.294 188.48 275.217 188.48 275.217L167.246 279.339L163.088 262.595L214.939 250.304L225.022 304.032L209.603 307.086L204.23 281.584C204.23 281.584 189.731 303.995 207.616 328.136C218.214 340.574 223.366 341.2 235.621 343.445C246.329 345.285 271.501 342.267 279.744 313.232C283.387 294.501 280.185 280.443 256.413 261.528L258.326 241.251C258.326 241.251 284.933 261.049 291.557 274.629C296.635 285.411 305.357 306.608 287.877 335.275Z" fill="white"/>
<defs>
<linearGradient id="paint0_linear-496867" x1="240" y1="0" x2="240" y2="701.818" gradientUnits="userSpaceOnUse">
<stop stop-color="#08021E"/>
<stop offset="1" stop-color="#1F0777"/>
</linearGradient>
</defs>
</svg>
